X:1
T:Title
%%score { ( 1 3 4 ) | ( 2 5 ) }
L:1/8
M:4/4
K:Eb
V:1 bass nm="Grand Piano"
V:3 bass 
V:4 bass 
V:2 treble 
V:5 treble 
V:1
 z4 z[Q:1/4=90] B,,E,F, | z[K:treble] GGG GB,CB, | z GGG G[K:bass]G,B,G, | %3
 z[K:treble] AAA AG,[K:bass]E,F, |[M:5/8][K:treble] z ed cB |[M:3/8][K:bass] B,,E,F, | %6
[M:4/4] z[K:treble] GGG GB,CB, | z GGG G[K:bass]G,G,_G, | z4[K:treble] d2 e2 |[M:5/8] z Bc _d=d | %10
[M:3/8] eed |[M:4/4] z GGG Gddc | A6 z2 | z [B,F][CF][DF] [B,F][B,DF][B,EG][B,FA] | %14
 [GB]6[K:bass][K:treble] z2 | =B6 z2 | B6 z2 | %17
 B6 z2[Q:1/4=87][Q:1/4=84][Q:1/4=82][Q:1/4=79][Q:1/4=76][Q:1/4=73][Q:1/4=70] | %18
[M:5/8] [G,B,E]-[G,B,E]- [G,B,E]3 |] %19
V:2
 z8 | z [B,E][CE][DE] .[B,E]2 z2 | z [B,E][CE][DE] .[B,E]2 z2 | z [B,D][B,E][B,F] .[B,D]2 z2 | %4
[M:5/8] z [EG][EG] [EG][EG] |[M:3/8] z3 |[M:4/4] z [B,E][CE][DE] .E2 z2 | %7
 z [B,E][CE][DE] .[B,E]2 z2 | z [GB][=AB][GB] [FB]2 .[CFA]2 |[M:5/8] z [DF][EG] [=EG][FAB] | %10
[M:3/8] z3 |[M:4/4] z[K:bass] [E,E][E,E][E,D] .[E,B,]2 z2 | z B,,B,,B,, B,,[K:treble]ddc | %13
 A6[K:bass] z2 | E,6 z2 | z [=B,,_G,][B,,G,][B,,G,] .[B,,G,]2 z2 | %16
 z [E,B,][E,B,][E,A,] .[E,G,]2 z2 | z [B,,F,] [B,,F,]/[B,,F,]/[B,,F,] [B,,F,]B,,B,,B,, | %18
[M:5/8] E,-E,- E,3 |] %19
V:3
 x8 | G,6[K:treble] z2 | G,6[K:bass] z2 | F,6[K:treble][K:bass] z2 |[M:5/8][K:treble] G,-G,- G,3 | %5
[M:3/8][K:bass] x3 |[M:4/4] G,6[K:treble] z2 | G,6[K:bass] z2 | z[K:treble] ddd z B, z F, | %9
[M:5/8] B,-B,- B,3 |[M:3/8] x3 |[M:4/4] B6 z2 | z [B,F][CF][DF] .[B,F]2 z2 | x8 | %14
 B,[K:bass]B,CG, B,E[K:treble]GB | z EEE Eee=B | z GGF EE E/F/G | z D D/D/D D[A,DF][CDA][B,DG] | %18
[M:5/8] x5 |] %19
V:4
 x8 | x[K:treble] x7 | x5[K:bass] x3 | x[K:treble] x5[K:bass] x2 |[M:5/8][K:treble] x5 | %5
[M:3/8][K:bass] x3 |[M:4/4] x[K:treble] x7 | x5[K:bass] x3 | F,6[K:treble] z2 |[M:5/8] x5 | %10
[M:3/8] x3 |[M:4/4] x8 | x8 | x8 | x[K:bass] x5[K:treble] x2 | x8 | x8 | x8 |[M:5/8] x5 |] %19
V:5
 x8 | x8 | x8 | x8 |[M:5/8] x5 |[M:3/8] x3 |[M:4/4] x8 | x8 | x8 |[M:5/8] x5 |[M:3/8] x3 | %11
[M:4/4] x[K:bass] x7 | x5[K:treble] x3 | z[K:bass] B,,B,,B,, B,,A,G,F, | x8 | x8 | x8 | x8 | %18
[M:5/8] x5 |] %19

